X: 6533
T: Catching Wasps
R: hornpipe
M: 4/4
K: Dmajor
|:d2AF (3FGA DA|BG dB A3 A|BG dB AB AF|E2 ed cB A2|
d2AF (3FGA DA|BG dB A3 A|BG dB AB cd|e2 A2 d4:|
|:(3gfe fd ec dA|B2 Bd A3 A|B2 Bd AB AF|E2 ed cB A2|
(3gfe fd ec dA|B2 Bd A3 A|B2 Bd AB cd|e2 A2 d4:|

